src/icon/action/photo-card/icon_photo-card_m_white.svg

<svg width="24px" height="24px" viewBox="0 0 24 24" version="1.1" xmlns="http://www.w3.org/2000/svg"><g fill="#FFFFFF" fill-rule="nonzero" stroke="none" stroke-width="1"><rect fill-opacity="0" x="0" y="0" width="24" height="24"/><path d="M4,17.2665888 C4,17.6746705 4.35397908,18 4.792924,18 L19.207076,18 C19.6450192,18 20,17.6729343 20,17.2665888 L20,6.7334112 C20,6.32532946 19.6460209,6 19.207076,6 L4.792924,6 C4.35498082,6 4,6.32706574 4,6.7334112 L4,17.2665888 Z M4.62912682,5 L19.3708732,5 C20.2706151,5 21,5.6806329 21,6.52949296 L21,17.470507 C21,18.3152227 20.272085,19 19.3708732,19 L4.62912682,19 C3.72938492,19 3,18.3193671 3,17.470507 L3,6.52949296 C3,5.68477732 3.72791505,5 4.62912682,5 Z"/><rect opacity="0.300000012" x="4" y="8" width="16" height="3"/><rect opacity="0.3" x="5" y="14" width="4" height="2"/><polygon transform="translate(21.994758, 4.002765) scale(-1, 1) translate(-21.994758, -4.002765) " points="20.9890898 6.00116502 19.9890898 6.00116502 19.9890898 2.00436401 24.0004255 2.00436401 24.0004255 2.99935913 20.9890898 2.99935913"/><polygon transform="translate(2.001594, 4.002765) scale(-1, 1) rotate(90.000000) translate(-2.001594, -4.002765) " points="0.995925651 6.00116527 -0.00407434834 6.00116527 -0.00407434834 2.00436426 4.00726138 2.00436426 4.00726138 2.99935938 0.995925651 2.99935938"/><polygon transform="translate(22.001595, 20.002765) scale(-1, 1) rotate(-90.000000) translate(-22.001595, -20.002765) " points="20.9959267 22.0011658 19.9959267 22.0011658 19.9959267 18.0043648 24.0072624 18.0043648 24.0072624 18.9993599 20.9959267 18.9993599"/><polygon transform="translate(2.001593, 20.002765) rotate(-90.000000) translate(-2.001593, -20.002765) " points="0.995925636 22.0011657 -0.00407436334 22.0011657 -0.00407436334 18.0043647 4.00726136 18.0043647 4.00726136 18.9993598 0.995925636 18.9993598"/></g></svg>

<svg width="24" height="24" viewBox="0 0 24 24" xmlns="http://www.w3.org/2000/svg"><g fill="#FFF" fill-rule="nonzero"><path fill="none" d="M0 0h24v24H0z"/><path d="M4 17.267c0 .408.354.733.793.733h14.414c.438 0 .793-.327.793-.733V6.733c0-.408-.354-.733-.793-.733H4.793C4.355 6 4 6.327 4 6.733v10.534zM4.63 5h14.74c.9 0 1.63.68 1.63 1.53v10.94c0 .845-.728 1.53-1.63 1.53H4.63C3.73 19 3 18.32 3 17.47V6.53C3 5.684 3.728 5 4.63 5z"/><path opacity=".3" d="M4 8h16v3H4zM5 14h4v2H5z"/><path d="M23 6.001h1V2.004h-4.01V3H23zM4 2.997v-1H.003v4.011h.995v-3.01zM20.003 21.008v1H24v-4.01h-.995v3.01zM4 21.008v1H.003v-4.01h.995v3.01z"/></g></svg>
